power-socket-de.svg

<svg fill="currentColor" viewBox="0 0 24 24"><path d="M4.22 2A2.22 2.22 0 0 0 2 4.22v15.56C2 21 3 22 4.22 22h15.56A2.22 2.22 0 0 0 22 19.78V4.22C22 3 21 2 19.78 2zM11 4.07V6h2V4.07A8 8 0 0 1 20 12a8 8 0 0 1-7 7.93V18h-2v1.93A8 8 0 0 1 4 12a8 8 0 0 1 7-7.93M7.5 10.5A1.5 1.5 0 0 0 6 12c0 .83.66 1.5 1.5 1.5A1.5 1.5 0 0 0 9 12a1.5 1.5 0 0 0-1.5-1.5m9 0A1.5 1.5 0 0 0 15 12a1.5 1.5 0 0 0 1.5 1.5A1.5 1.5 0 0 0 18 12a1.5 1.5 0 0 0-1.5-1.5"/></svg>

<svg  viewBox="0 0 24 24" fill="currentColor"><path  d="M4.22 2A2.22 2.22 0 0 0 2 4.22V19.78C2 21 3 22 4.22 22H19.78A2.22 2.22 0 0 0 22 19.78V4.22C22 3 21 2 19.78 2H4.22M11 4.07V6H13V4.07A8 8 0 0 1 20 12A8 8 0 0 1 13 19.93V18H11V19.93A8 8 0 0 1 4 12A8 8 0 0 1 11 4.07M7.5 10.5A1.5 1.5 0 0 0 6 12C6 12.83 6.66 13.5 7.5 13.5A1.5 1.5 0 0 0 9 12A1.5 1.5 0 0 0 7.5 10.5M16.5 10.5A1.5 1.5 0 0 0 15 12A1.5 1.5 0 0 0 16.5 13.5A1.5 1.5 0 0 0 18 12A1.5 1.5 0 0 0 16.5 10.5Z"/></svg>
